X: 37
T:Downs,The. JC.036
M:C
L:1/8
Q:120
S:John Clare,Poet,Helpston. (1793-1864)
R:Air
O:England
A:Northamptonshire
N:
Z:vmp.P. Headford
K:G
DG GGG2"Qu"B2|AF ABA2Bc|d2de dcBA|G2GGG4:|!
|:d2dBd4|e2ece4|E2EFG2GA|BcBA GFED|!
d2dBd4|e2ece4|E2EFG2GA|BcBA GFED|!
GGGG AAAA|BABcd3z|d2de dcBA|G2"Crots"GGG4:|]
